icon-themes/breeze_svg/cmd/lc_insertcolumnbreak.svg

<svg viewBox="0 0 24 24" xmlns="http://www.w3.org/2000/svg"><path d="m3 3v18h17v-18zm1 1h15v16h-15zm2 2v1h4v-1zm0 3v1h4v-1zm7 0v1h4v-1zm-7 3v1h4v-1zm7 0v1h4v-1zm-7 3v1h4v-1zm7 0v1h4v-1zm0 3v1h4v-1z" fill="#4d4d4d"/><path d="m11 6v12h-5v1h5 1v-12h5v-1h-5z" fill="#1d99f3"/></svg>

<svg viewBox="0 0 24 24" xmlns="http://www.w3.org/2000/svg">
  <path
     style="fill:#4d4d4d"
     d="M 3,3 V 21 H 20 V 3 Z M 4,4 H 19 V 20 H 4 Z m 2,2 v 1 h 4 V 6 Z m 0,3 v 1 h 4 V 9 Z m 7,0 v 1 h 4 V 9 Z m -7,3 v 1 h 4 v -1 z m 7,0 v 1 h 4 v -1 z m -7,3 v 1 h 4 v -1 z m 7,0 v 1 h 4 v -1 z m 0,3 v 1 h 4 v -1 z"
     />
  <path
     style="fill:#1d99f3"
     d="M 11,6 V 18 H 6 v 1 h 5 1 V 7 h 5 V 6 h -5 z"
     />
</svg>
